X:1
T: Three Halfpence a Day
C:
R:Jig
Q:180
K:G
M:6/8
L:1/16
B2|:c2B2A2 B2A2G2|A2G2E2 G2E2D2|c2B2A2 d2B2G2|E2A2A2 A4B2|
c2B2A2 B2A2G2|A2G2E2 G2E2D2|E2F2E2 E4D2|E2A2A2 A4B2:|
|:c2B2c2 d2c2d2|e2c2A2 G2E2D2|c2B2c2 d2=f2d2|c2A2B2 c4d2|
e2d2c2 d2c2B2|c2B2A2 G2E2D2|E2F2E2 E4D2|1E2A2A2 A4B2:|2E2A2A2 A4||
